X:1
T:Title
%%score [ ( 1 2 ) ( 3 4 ) ] { ( 5 6 ) | ( 7 8 ) }
L:1/8
Q:1/4=120
M:4/4
K:E
V:1 treble nm="Midi_74"
V:2 treble 
V:3 bass nm="Midi_74"
V:4 bass 
V:5 treble nm="Org."
V:6 treble 
V:7 bass 
V:8 bass 
V:1
 (E6 D2) | (C4 A4) |{G} F8 || G8 | G4 c4 | c4 ^B4 | c8 || (B6 A2) | (G4 e4) |{=d} c8 || B8 | %11
 B4"^William Henry Havergal\n(1793-1870)" e4 | e4 d4 | e8 |] %14
V:2
 B,8 | (C4 F4) |{E} D8 || (E6 F2) | E4 E4 | D4 [DF]4 | E8 || F8 | E4 E4 | E8 || (E6 D2) | E4 E4 | %12
 F4 A4 | G8 |] %14
V:3
 B,8 | A,4 A,4 | B,8 || (B,6 ^B,2) | C4 C4 | A,4 G,4 | G,8 || B,8 | B,4 B,4 | A,8 || (B,6 A,2) | %11
 G,4 E4 | C4 B,4 | B,8 |] %14
V:4
 G,8 | A,4 F,4 | B,8 || (E,6 D,2) | C,4 A,4 | F,4 G,4 | C,8 || D,8 | E,4 G,,4 | A,,8 || (G,6 F,2) | %11
 E,4 C4 | A,4 B,4 | E,8 |] %14
V:5
 E6 D2 | C4 A4 |{G} F8 || G8 | G4 c4 | c4 [D^B]4 | c8 || B6 A2 | G4 e4 |{=d} c8 || B8 | B4 e4 | %12
 e4 d4 | e8 |] %14
V:6
 B,8 | C4 [CF]4 |{E} D8 || [B,E]6 [^B,F]2 | [CE]4 [EA]4 | [DA]4 G2 F2 | E8 || [B,F]8 | %8
 [B,E]4 [EB]4 | [CA]8 || E6 D2 | E4 [EG]4 | [FA]4 [FA]4 | [EG]8 |] %14
V:7
 x8 | x4 x2 x2 | x8 || x8 | x8 | x8 | x8 || x8 | x4 x2 x2 | x8 || B,6 A,2 | G,4 x4 | C4 x4 | B,8 |] %14
V:8
 G,8 | A,4 F,4 | B,8 || E,6 D,2 | C,4 A,4 | F,4 G,4 | C,8 || D,8 | E,4 G,,4 | A,,8 || G,6 F,2 | %11
 E,4 C4 | A,4 B,4 | E,8 |] %14

